X: 141
T:Adele Blanc-Sec
M:4/4
L:1/8
C:Frederic Paris
R:Schottische
Z:Steve Mansfield 12/3/00
K:Dm
FEFA GFGB | A2E4FG | A3A BABc | A6 G2 | FEFA GFGB | A2E4FG |
A2GF EFGA |1 D8 :|2 D6FA |: d2cB ABcd | GABcA3A | B2AG E3B |
AGEG F2D2 | d2cB ABcd | GABcA3A | B2AG E3B | AGEF D4 :|
<end>
<start>
